;FLAVOR:Marlin
;TIME:1635
;Filament used: 1.49242m
;Layer height: 0.2
;MINX:60.776
;MINY:83.314
;MINZ:0.3
;MAXX:142.307
;MAXY:116.521
;MAXZ:4.7
;Generated with Cura_SteamEngine 4.13.1
M140 S60
M105
M190 S60
M104 S200
M105
M109 S200
M82 ;absolute extrusion mode
G21 ;metric values
 G90 ;absolute positioning
 M82 ;set extruder to absolute mode
 M107 ;start with the fan off
 G28 X0 Y0 ;move X/Y to min endstops
 G28 Z0 ;move Z to min endstops
 G1 Z15.0 F120 ;move the platform down 15mm
 G92 E0 ;zero the extruded length
 G1 F200 E6 ;extrude 6 mm of feed stock
 G92 E0 ;zero the extruded length again
 G1 F120 
 ;Put printing message on LCD screen
 M117 Printing...
G92 E0
G92 E0
G1 F1500 E-6.5
;LAYER_COUNT:23
;LAYER:0
M107
;MESH:tinker.obj
G0 F3600 X117.47 Y98.632 Z0.3
;TYPE:WALL-INNER
G1 F1500 E0
G1 F1800 X61.176 Y98.632 E2.80852
G1 X61.176 Y83.714 E3.55278
G1 X125.986 Y83.714 E6.78617
G1 X125.986 Y92.736 E7.23627
G1 X126.913 Y92.952 E7.28376
G1 X127.958 Y90.835 E7.40155
G1 X128.137 Y90.472 E7.42174
G1 X128.316 Y90.835 E7.43286
G1 X132.25 Y98.806 E7.87633
G1 X141.048 Y100.085 E8.31988
G1 X141.448 Y100.143 E8.34004
G1 X141.158 Y100.425 E8.35117
G1 X134.792 Y106.629 E8.79465
G1 X136.296 Y115.391 E9.23818
G1 X136.364 Y115.79 E9.25837
G1 X136.006 Y115.602 E9.26949
G1 X128.137 Y111.465 E9.71303
G1 X120.269 Y115.602 E10.15652
G1 X119.911 Y115.79 E10.17669
G1 X119.979 Y115.391 E10.18783
G1 X121.483 Y106.629 E10.63136
G1 X115.116 Y100.424 E11.07491
G1 X114.826 Y100.142 E11.09509
G1 X115.226 Y100.084 E11.1062
G1 X117.551 Y99.745 E11.22343
G1 X117.47 Y98.632 E11.2791
G0 F3600 X117.098 Y99.032
;TYPE:WALL-OUTER
G1 F1800 X60.776 Y99.032 E14.08902
G1 X60.776 Y83.314 E14.87319
G1 X126.386 Y83.314 E18.14649
G1 X126.386 Y92.418 E18.60069
G1 X126.695 Y92.49 E18.61652
G1 X127.958 Y89.931 E18.75889
G1 X128.137 Y89.568 E18.77908
G1 X128.316 Y89.931 E18.7902
G1 X132.516 Y98.44 E19.26361
G1 X141.907 Y99.805 E19.73706
G1 X142.307 Y99.863 E19.75722
G1 X142.017 Y100.145 E19.76835
G1 X135.222 Y106.769 E20.24178
G1 X136.827 Y116.122 E20.71522
G1 X136.895 Y116.521 E20.73542
G1 X136.537 Y116.333 E20.74654
G1 X128.137 Y111.917 E21.22
G1 X119.738 Y116.333 E21.69342
G1 X119.38 Y116.521 E21.71359
G1 X119.448 Y116.122 E21.72472
G1 X121.053 Y106.769 E22.19817
G1 X114.257 Y100.145 E22.67163
G1 X113.967 Y99.863 E22.69181
G1 X114.367 Y99.805 E22.70293
G1 X117.125 Y99.403 E22.84198
G1 X117.098 Y99.032 E22.86054
G0 F3600 X116.898 Y99.032
G0 X116.898 Y98.732
G0 X117.833 Y98.242
;TYPE:SKIN
G1 F1800 X61.566 Y98.242 E25.66771
G1 X61.566 Y84.104 E26.37306
G1 X125.596 Y84.104 E29.56753
G1 X125.596 Y93.046 E30.01365
G1 X127.126 Y93.402 E30.09202
G1 X128.137 Y91.353 E30.20601
G1 X131.991 Y99.163 E30.64051
G1 X140.609 Y100.416 E31.07499
G1 X134.373 Y106.493 E31.5094
G1 X135.846 Y115.077 E31.94391
G1 X128.137 Y111.024 E32.37843
G1 X120.429 Y115.077 E32.81291
G1 X121.902 Y106.493 E33.24743
G1 X115.664 Y100.414 E33.68198
G1 X117.966 Y100.078 E33.79804
G1 X117.833 Y98.242 E33.88988
G0 F3600 X125.415 Y84.685
G1 F1800 X125.013 Y84.284 E33.91821
G0 F3600 X124.447 Y84.284
G1 F1800 X125.415 Y85.251 E33.98647
G0 F3600 X125.415 Y85.817
G1 F1800 X123.882 Y84.284 E34.09463
G0 F3600 X123.316 Y84.284
G1 F1800 X125.415 Y86.382 E34.24269
G0 F3600 X125.415 Y86.948
G1 F1800 X122.75 Y84.284 E34.43069
G0 F3600 X122.185 Y84.284
G1 F1800 X125.415 Y87.514 E34.65858
G0 F3600 X125.415 Y88.08
G1 F1800 X121.619 Y84.284 E34.92641
G0 F3600 X121.053 Y84.284
G1 F1800 X125.415 Y88.645 E35.23414
G0 F3600 X125.415 Y89.211
G1 F1800 X120.488 Y84.284 E35.58176
G0 F3600 X119.922 Y84.284
G1 F1800 X125.415 Y89.777 E35.96932
G0 F3600 X125.415 Y90.342
G1 F1800 X119.356 Y84.284 E36.39678
G0 F3600 X118.791 Y84.284
G1 F1800 X125.415 Y90.908 E36.86414
G0 F3600 X125.415 Y91.474
G1 F1800 X118.225 Y84.284 E37.37144
G0 F3600 X117.659 Y84.284
G1 F1800 X125.415 Y92.039 E37.91863
G0 F3600 X125.415 Y92.605
G1 F1800 X117.094 Y84.284 E38.50572
G0 F3600 X116.528 Y84.284
G1 F1800 X125.415 Y93.171 E39.13275
G1 X125.439 Y93.195
G1 X136.455 Y104.211 E39.90998
G0 F3600 X136.741 Y103.931
G1 F1800 X132.182 Y99.372 E40.23165
G0 F3600 X132.844 Y99.468
G1 F1800 X137.028 Y103.652 E40.52685
G0 F3600 X137.314 Y103.373
G1 F1800 X133.506 Y99.564 E40.79556
G0 F3600 X134.167 Y99.661
G1 F1800 X137.6 Y103.094 E41.03778
G0 F3600 X137.887 Y102.815
G1 F1800 X134.83 Y99.757 E41.2535
G0 F3600 X135.492 Y99.854
G1 F1800 X138.174 Y102.536 E41.44273
G0 F3600 X138.46 Y102.256
G1 F1800 X136.154 Y99.95 E41.60543
G0 F3600 X136.815 Y100.046
G1 F1800 X138.747 Y101.977 E41.74171
G0 F3600 X139.033 Y101.698
G1 F1800 X137.478 Y100.143 E41.85142
G0 F3600 X138.14 Y100.239
G1 F1800 X139.32 Y101.419 E41.93468
G0 F3600 X139.606 Y101.14
G1 F1800 X138.802 Y100.335 E41.99144
G0 F3600 X139.464 Y100.431
G1 F1800 X139.893 Y100.861 E42.02174
G0 F3600 X136.168 Y104.49
G1 F1800 X115.962 Y84.284 E43.44738
G0 F3600 X115.396 Y84.284
G1 F1800 X135.881 Y104.769 E44.89271
G0 F3600 X135.595 Y105.048
G1 F1800 X114.831 Y84.284 E46.35772
G0 F3600 X114.265 Y84.284
G1 F1800 X135.309 Y105.327 E47.84246
G0 F3600 X135.022 Y105.607
G1 F1800 X113.699 Y84.284 E49.34691
G0 F3600 X113.134 Y84.284
G1 F1800 X134.736 Y105.886 E50.87105
G0 F3600 X134.449 Y106.165
G1 F1800 X112.568 Y84.284 E52.41487
G0 F3600 X112.002 Y84.284
G1 F1800 X134.186 Y106.467 E53.98004
G0 F3600 X134.302 Y107.15
G1 F1800 X111.437 Y84.284 E55.59332
G0 F3600 X110.871 Y84.284
G1 F1800 X134.42 Y107.833 E57.25483
G0 F3600 X134.536 Y108.515
G1 F1800 X110.305 Y84.284 E58.96446
G0 F3600 X109.74 Y84.284
G1 F1800 X134.654 Y109.198 E60.72227
G0 F3600 X134.771 Y109.881
G1 F1800 X109.174 Y84.284 E62.52828
G0 F3600 X108.608 Y84.284
G1 F1800 X134.888 Y110.563 E64.38244
G0 F3600 X135.005 Y111.246
G1 F1800 X108.043 Y84.284 E66.28476
G0 F3600 X107.477 Y84.284
G1 F1800 X135.123 Y111.93 E68.23533
G0 F3600 X135.239 Y112.612
G1 F1800 X106.911 Y84.284 E70.23402
G0 F3600 X106.346 Y84.284
G1 F1800 X135.357 Y113.295 E72.28091
G0 F3600 X135.473 Y113.977
G1 F1800 X105.78 Y84.284 E74.37591
G0 F3600 X105.214 Y84.284
G1 F1800 X135.591 Y114.66 E76.51914
G1 X135.661 Y114.73
G0 F3600 X134.564 Y114.199
G1 F1800 X104.648 Y84.284 E78.62984
G0 F3600 X104.083 Y84.284
G1 F1800 X117.86 Y98.061 E79.60188
G0 F3600 X118.009 Y98.21
G1 F1800 X133.371 Y113.572 E80.68575
G1 X133.441 Y113.642
G0 F3600 X132.178 Y112.945
G1 F1800 X118.054 Y98.821 E81.68227
G0 F3600 X118.098 Y99.431
G1 F1800 X130.986 Y112.318 E82.59156
G1 X131.056 Y112.388
G0 F3600 X129.793 Y111.691
G1 F1800 X118.143 Y100.041 E83.41353
G0 F3600 X117.818 Y100.281
G1 F1800 X128.6 Y111.064 E84.17429
G0 F3600 X127.909 Y110.939
G1 F1800 X117.324 Y100.354 E84.92112
G0 F3600 X116.831 Y100.426
G1 F1800 X127.538 Y111.133 E85.67656
G0 F3600 X127.168 Y111.329
G1 F1800 X116.336 Y100.497 E86.44081
G1 X116.266 Y100.427
G0 F3600 X117.369 Y99.599
G0 X116.163 Y98.061
G1 F1800 X102.386 Y84.284 E87.41285
G0 F3600 X102.951 Y84.284
G1 F1800 X116.729 Y98.061 E88.38493
G0 F3600 X117.294 Y98.061
G1 F1800 X103.517 Y84.284 E89.35697
G1 X103.447 Y84.214
G0 F3600 X101.82 Y84.284
G1 F1800 X115.597 Y98.061 E90.32901
G0 F3600 X115.032 Y98.061
G1 F1800 X101.254 Y84.284 E91.30109
G0 F3600 X100.689 Y84.284
G1 F1800 X114.466 Y98.061 E92.27313
G0 F3600 X113.9 Y98.061
G1 F1800 X100.123 Y84.284 E93.24518
G0 F3600 X99.557 Y84.284
G1 F1800 X113.335 Y98.061 E94.21725
G0 F3600 X112.769 Y98.061
G1 F1800 X98.992 Y84.284 E95.18929
G0 F3600 X98.426 Y84.284
G1 F1800 X112.203 Y98.061 E96.16134
G0 F3600 X111.638 Y98.061
G1 F1800 X97.86 Y84.284 E97.13341
G0 F3600 X97.295 Y84.284
G1 F1800 X111.072 Y98.061 E98.10545
G0 F3600 X110.506 Y98.061
G1 F1800 X96.729 Y84.284 E99.0775
G0 F3600 X96.163 Y84.284
G1 F1800 X109.94 Y98.061 E100.04954
G0 F3600 X109.375 Y98.061
G1 F1800 X95.598 Y84.284 E101.02158
G0 F3600 X95.032 Y84.284
G1 F1800 X108.809 Y98.061 E101.99362
G0 F3600 X108.243 Y98.061
G1 F1800 X94.466 Y84.284 E102.96566
G0 F3600 X93.9 Y84.284
G1 F1800 X107.678 Y98.061 E103.93774
G0 F3600 X107.112 Y98.061
G1 F1800 X93.334 Y84.283 E104.90985
G0 F3600 X92.768 Y84.283
G1 F1800 X106.546 Y98.061 E105.88196
G0 F3600 X105.981 Y98.061
G1 F1800 X92.203 Y84.283 E106.85408
G0 F3600 X91.637 Y84.283
G1 F1800 X105.415 Y98.061 E107.82619
G0 F3600 X104.849 Y98.061
G1 F1800 X91.071 Y84.283 E108.7983
G0 F3600 X90.506 Y84.283
G1 F1800 X104.284 Y98.061 E109.77041
G0 F3600 X103.718 Y98.061
G1 F1800 X89.94 Y84.283 E110.74253
G0 F3600 X89.374 Y84.283
G1 F1800 X103.152 Y98.061 E111.71464
G0 F3600 X102.587 Y98.061
G1 F1800 X88.809 Y84.283 E112.68675
G0 F3600 X88.243 Y84.283
G1 F1800 X102.021 Y98.061 E113.65886
G0 F3600 X101.455 Y98.061
G1 F1800 X87.677 Y84.283 E114.63098
G0 F3600 X87.112 Y84.283
G1 F1800 X100.889 Y98.061 E115.60305
G0 F3600 X100.324 Y98.061
G1 F1800 X86.546 Y84.283 E116.57517
G0 F3600 X85.98 Y84.283
G1 F1800 X99.758 Y98.061 E117.54728
G0 F3600 X99.192 Y98.061
G1 F1800 X85.414 Y84.283 E118.51939
G0 F3600 X84.849 Y84.283
G1 F1800 X98.627 Y98.061 E119.4915
G0 F3600 X98.061 Y98.061
G1 F1800 X84.283 Y84.283 E120.46361
G0 F3600 X83.717 Y84.283
G1 F1800 X97.495 Y98.061 E121.43573
G0 F3600 X96.93 Y98.061
G1 F1800 X83.152 Y84.283 E122.40784
G0 F3600 X82.586 Y84.283
G1 F1800 X96.364 Y98.061 E123.37995
G0 F3600 X95.798 Y98.061
G1 F1800 X82.02 Y84.283 E124.35206
G0 F3600 X81.455 Y84.283
G1 F1800 X95.233 Y98.061 E125.32418
G0 F3600 X94.667 Y98.061
G1 F1800 X80.889 Y84.283 E126.29629
G0 F3600 X80.323 Y84.283
G1 F1800 X94.101 Y98.061 E127.2684
G0 F3600 X93.536 Y98.061
G1 F1800 X79.758 Y84.283 E128.24051
G0 F3600 X79.192 Y84.283
G1 F1800 X92.97 Y98.061 E129.21263
G0 F3600 X92.404 Y98.061
G1 F1800 X78.626 Y84.283 E130.18474
G0 F3600 X78.061 Y84.283
G1 F1800 X91.839 Y98.061 E131.15685
G0 F3600 X91.273 Y98.061
G1 F1800 X77.495 Y84.283 E132.12896
G0 F3600 X76.929 Y84.283
G1 F1800 X90.707 Y98.061 E133.10107
G0 F3600 X90.141 Y98.061
G1 F1800 X76.363 Y84.283 E134.07319
G0 F3600 X75.798 Y84.283
G1 F1800 X89.576 Y98.061 E135.0453
G0 F3600 X89.01 Y98.061
G1 F1800 X75.232 Y84.283 E136.01741
G0 F3600 X74.666 Y84.283
G1 F1800 X88.444 Y98.061 E136.98952
G0 F3600 X87.879 Y98.061
G1 F1800 X74.101 Y84.283 E137.96164
G0 F3600 X73.535 Y84.283
G1 F1800 X87.313 Y98.061 E138.93375
G0 F3600 X86.747 Y98.061
G1 F1800 X72.969 Y84.283 E139.90586
G0 F3600 X72.404 Y84.283
G1 F1800 X86.182 Y98.061 E140.87797
G0 F3600 X85.616 Y98.061
G1 F1800 X71.838 Y84.283 E141.85009
G0 F3600 X71.272 Y84.283
G1 F1800 X85.05 Y98.061 E142.8222
G0 F3600 X84.485 Y98.061
G1 F1800 X70.707 Y84.283 E143.79431
G0 F3600 X70.141 Y84.283
G1 F1800 X83.919 Y98.061 E144.76642
G0 F3600 X83.353 Y98.061
G1 F1800 X69.575 Y84.283 E145.73853
G0 F3600 X69.01 Y84.283
G1 F1800 X82.788 Y98.061 E146.71065
G0 F3600 X82.222 Y98.061
G1 F1800 X68.444 Y84.283 E147.68276
G0 F3600 X67.878 Y84.283
G1 F1800 X81.656 Y98.061 E148.65487
G0 F3600 X81.091 Y98.061
G1 F1800 X67.313 Y84.283 E149.62698
G0 F3600 X66.747 Y84.283
G1 F1800 X80.525 Y98.061 E150.5991
G0 F3600 X79.959 Y98.061
G1 F1800 X66.181 Y84.283 E151.57121
G0 F3600 X65.615 Y84.283
G1 F1800 X79.393 Y98.061 E152.54332
G0 F3600 X78.828 Y98.061
G1 F1800 X65.05 Y84.283 E153.51543
G0 F3600 X64.484 Y84.283
G1 F1800 X78.262 Y98.061 E154.48755
G0 F3600 X77.696 Y98.061
G1 F1800 X63.918 Y84.283 E155.45966
G0 F3600 X63.353 Y84.283
G1 F1800 X77.131 Y98.061 E156.43177
G0 F3600 X76.565 Y98.061
G1 F1800 X62.787 Y84.283 E157.40388
G0 F3600 X62.221 Y84.283
G1 F1800 X75.999 Y98.061 E158.37599
G0 F3600 X75.434 Y98.061
G1 F1800 X61.745 Y84.373 E159.34179
G0 F3600 X61.745 Y84.939
G1 F1800 X74.868 Y98.061 E160.26766
G0 F3600 X74.302 Y98.061
G1 F1800 X61.745 Y85.504 E161.15362
G0 F3600 X61.745 Y86.07
G1 F1800 X73.737 Y98.061 E161.99968
G0 F3600 X73.171 Y98.061
G1 F1800 X61.745 Y86.636 E162.80582
G0 F3600 X61.745 Y87.201
G1 F1800 X72.605 Y98.061 E163.57205
G0 F3600 X72.04 Y98.061
G1 F1800 X61.745 Y87.767 E164.29838
G0 F3600 X61.745 Y88.333
G1 F1800 X71.474 Y98.061 E164.98478
G0 F3600 X70.908 Y98.061
G1 F1800 X61.745 Y88.898 E165.63128
G0 F3600 X61.745 Y89.464
G1 F1800 X70.342 Y98.061 E166.23784
G0 F3600 X69.777 Y98.061
G1 F1800 X61.745 Y90.03 E166.80451
G0 F3600 X61.745 Y90.595
G1 F1800 X69.211 Y98.061 E167.33127
G0 F3600 X68.645 Y98.061
G1 F1800 X61.745 Y91.161 E167.81811
G0 F3600 X61.745 Y91.727
G1 F1800 X68.08 Y98.061 E168.26504
G0 F3600 X67.514 Y98.061
G1 F1800 X61.745 Y92.292 E168.67207
G0 F3600 X61.745 Y92.858
G1 F1800 X66.948 Y98.061 E169.03917
G0 F3600 X66.383 Y98.061
G1 F1800 X61.745 Y93.424 E169.36637
G0 F3600 X61.745 Y93.99
G1 F1800 X65.817 Y98.061 E169.65364
G0 F3600 X65.251 Y98.061
G1 F1800 X61.745 Y94.555 E169.90101
G0 F3600 X61.745 Y95.121
G1 F1800 X64.686 Y98.061 E170.10848
G0 F3600 X64.12 Y98.061
G1 F1800 X61.745 Y95.687 E170.27601
G0 F3600 X61.745 Y96.252
G1 F1800 X63.554 Y98.061 E170.40364
G0 F3600 X62.989 Y98.061
G1 F1800 X61.745 Y96.818 E170.49138
G0 F3600 X61.745 Y97.384
G1 F1800 X62.423 Y98.061 E170.53918
G0 F3600 X61.857 Y98.061
G1 F1800 X61.745 Y97.949 E170.54708
G0 F3600 X117.311 Y98.803
G0 X121.306 Y106.686
G0 X121.787 Y108.211
G1 F1800 X125.685 Y112.108 E170.82207
G0 F3600 X126.055 Y111.913
G1 F1800 X121.87 Y107.728 E171.11735
G0 F3600 X121.953 Y107.246
G1 F1800 X126.426 Y111.718 E171.43291
G0 F3600 X126.797 Y111.524
G1 F1800 X122.036 Y106.763 E171.76882
G1 X121.966 Y106.693
G0 F3600 X121.705 Y108.694
G1 F1800 X125.314 Y112.303 E172.02346
G0 F3600 X124.943 Y112.498
G1 F1800 X121.622 Y109.177 E172.25777
G0 F3600 X121.539 Y109.66
G1 F1800 X124.573 Y112.693 E172.4718
G0 F3600 X124.201 Y112.888
G1 F1800 X121.456 Y110.143 E172.66547
G0 F3600 X121.374 Y110.626
G1 F1800 X123.831 Y113.083 E172.83883
G0 F3600 X123.46 Y113.278
G1 F1800 X121.29 Y111.108 E172.99193
G0 F3600 X121.208 Y111.591
G1 F1800 X123.09 Y113.473 E173.12472
G0 F3600 X122.719 Y113.668
G1 F1800 X121.125 Y112.074 E173.23718
G0 F3600 X121.042 Y112.557
G1 F1800 X122.348 Y113.863 E173.32933
G0 F3600 X121.978 Y114.058
G1 F1800 X120.959 Y113.04 E173.40119
G0 F3600 X120.877 Y113.523
G1 F1800 X121.606 Y114.252 E173.45263
G0 F3600 X121.236 Y114.448
G1 F1800 X120.794 Y114.006 E173.48381
G0 F3600 X120.71 Y114.488
G1 F1800 X120.865 Y114.643 E173.49475
G0 F3600 X131.611 Y98.801
G1 F1800 X126.176 Y93.367 E173.87818
G0 F3600 X126.914 Y93.538
G1 F1800 X131.06 Y97.685 E174.17074
G1 X131.13 Y97.755
G0 F3600 X130.509 Y96.568
G1 F1800 X127.331 Y93.39 E174.39496
G0 F3600 X127.518 Y93.011
G1 F1800 X129.957 Y95.45 E174.56705
G1 X130.027 Y95.52
G0 F3600 X129.406 Y94.334
G1 F1800 X127.704 Y92.632 E174.68713
G0 F3600 X127.892 Y92.254
G1 F1800 X128.855 Y93.217 E174.75508
G1 X128.925 Y93.287
G0 F3600 X128.304 Y92.1
G1 F1800 X128.078 Y91.875 E174.77099
;MESH:NONMESH
G0 F600 X128.078 Y91.875 Z0.5
G0 F3600 X127.367 Y92.374
G0 X117.47 Y98.632
;TIME_ELAPSED:135.672343
;LAYER:1
M106 S255
;TYPE:WALL-INNER
;MESH:tinker.obj
G1 F2700 X61.176 Y98.632 E176.64333
G1 X61.176 Y83.714 E177.13951
G1 X125.986 Y83.714 E179.2951
G1 X125.986 Y92.736 E179.59517
G1 X126.913 Y92.952 E179.62683
G1 X127.958 Y90.835 E179.70535
G1 X128.137 Y90.472 E179.71881
G1 X128.316 Y90.835 E179.72623
G1 X132.25 Y98.806 E180.02188
G1 X141.048 Y100.085 E180.31757
G1 X141.448 Y100.143 E180.33102
G1 X141.158 Y100.425 E180.33843
G1 X134.792 Y106.629 E180.63409
G1 X136.296 Y115.391 E180.92977
G1 X136.364 Y115.79 E180.94324
G1 X136.006 Y115.602 E180.95065
G1 X128.137 Y111.465 E181.24634
G1 X120.269 Y115.602 E181.542
G1 X119.911 Y115.79 E181.55545
G1 X119.979 Y115.391 E181.56287
G1 X121.483 Y106.629 E181.85856
G1 X115.116 Y100.424 E182.15426
G1 X114.826 Y100.142 E182.16771
G1 X115.226 Y100.084 E182.17513
G1 X117.551 Y99.745 E182.25327
G1 X117.47 Y98.632 E182.29039
G0 F5400 X117.098 Y99.032
;TYPE:WALL-OUTER
G1 F1800 X60.776 Y99.032 E184.16367
G1 X60.776 Y83.314 E184.68645
G1 X126.386 Y83.314 E186.86865
G1 X126.386 Y92.418 E187.17145
G1 X126.695 Y92.49 E187.182
G1 X127.958 Y89.931 E187.27691
G1 X128.137 Y89.568 E187.29038
G1 X128.316 Y89.931 E187.29779
G1 X132.516 Y98.44 E187.6134
G1 X141.907 Y99.805 E187.92903
G1 X142.307 Y99.863 E187.94247
G1 X142.017 Y100.145 E187.94989
G1 X135.222 Y106.769 E188.26551
G1 X136.827 Y116.122 E188.58114
G1 X136.895 Y116.521 E188.5946
G1 X136.537 Y116.333 E188.60201
